src/BloomBrowserUI/bookEdit/img/ChangeImageButton.svg

<?xml version="1.0" encoding="UTF-8" standalone="no"?>
<svg
   width="68"
   height="54.900002"
   viewBox="0 0 68 54.900002"
   fill="none"
   version="1.1"
   id="svg6"
   xmlns="http://www.w3.org/2000/svg"
   xmlns:svg="http://www.w3.org/2000/svg">
  <g
     filter="url(#filter0_d_5071_2477)"
     id="g4"
     transform="translate(-3.8868895,-0.05398458)">
    <rect
       x="4"
       width="68"
       height="55"
       rx="4"
       fill="#1d94a4"
       id="rect1"
       y="0" />
    <g
       clip-path="url(#clip0_5071_2477)"
       id="g3">
      <path
         d="m 15.1436,37.7576 c 1.6284,-1.8897 4.6173,-4.6601 6.6418,-4.2659 2.0246,0.3939 5.6272,1.4648 8.0059,-4.4937 1.4786,-3.704 6.1239,-5.298 7.8389,-3.9115 7.8962,6.384 6.3696,-0.0222 7.8113,-2.9236 3.7721,-7.5962 5.4739,-5.9766 11.0518,2.7154 4.7445,7.3932 4.868,14.8406 3.8682,14.7762 0,0 -10.6785,0 -23.6169,0 -21.874,0 -24.2378,1.1707 -21.601,-1.8892 z m 3.072,-21.4781 c -0.8008,-2.01 -0.3474,-4.7225 1.0077,-6.0277 3.523,-3.39292 10.198,-0.29187 9.2778,4.3102 -1.025,5.1261 -8.4343,6.3635 -10.2855,1.7175 z"
         fill="#ffffff"
         id="path1" />
      <path
         d="M 63.4906,6.75586 H 12.1045 V 42.045 h 51.3861 z"
         stroke="#ffffff"
         stroke-width="1.28891"
         id="path2" />
      <path
         d="m 47.7543,11.0258 c -3.9272,-0.0794 -7.8668,1.4629 -10.6319,4.5301 h -0.0023 c -4.0332,4.4738 -4.381,10.8786 -1.2621,15.5976 L 21.7358,46.9064 27.3591,51.6068 41.4878,35.907 c 5.2385,2.5874 12.0617,1.4447 16.2044,-3.1506 4.9157,-5.4527 4.3024,-13.8202 -1.3594,-18.5544 -2.477,-2.0713 -5.524,-3.1144 -8.5785,-3.1762 z m -0.3536,4.9388 c 1.1484,10e-5 2.2857,0.218 3.3467,0.6414 1.061,0.4234 2.025,1.0439 2.837,1.8261 0.812,0.7822 1.456,1.7108 1.8954,2.7328 0.4393,1.0219 0.6654,2.1172 0.6652,3.2233 -2e-4,2.2334 -0.9216,4.3754 -2.5614,5.9547 -1.6398,1.5792 -3.8639,2.4666 -6.1829,2.4667 -1.1485,2e-4 -2.2858,-0.2174 -3.3469,-0.6406 -1.0611,-0.4231 -2.0253,-1.0434 -2.8375,-1.8254 -0.8122,-0.782 -1.4565,-1.7104 -1.8961,-2.7323 -0.4396,-1.0218 -0.6659,-2.117 -0.666,-3.2231 -2e-4,-1.1063 0.2259,-2.2017 0.6654,-3.2238 0.4394,-1.0221 1.0837,-1.9508 1.8959,-2.733 0.8122,-0.7823 1.7765,-1.4027 2.8378,-1.826 1.0613,-0.4233 2.1987,-0.641 3.3474,-0.6408 z"
         fill="#ffffff"
         stroke="#1d94a4"
         stroke-width="2"
         id="path3" />
    </g>
  </g>
  <defs
     id="defs6">
    <filter
       id="filter0_d_5071_2477"
       x="0"
       y="0"
       width="76"
       height="63"
       filterUnits="userSpaceOnUse"
       color-interpolation-filters="sRGB">
      <feFlood
         flood-opacity="0"
         result="BackgroundImageFix"
         id="feFlood4" />
      <feColorMatrix
         in="SourceAlpha"
         type="matrix"
         values="0 0 0 0 0 0 0 0 0 0 0 0 0 0 0 0 0 0 127 0"
         result="hardAlpha"
         id="feColorMatrix4" />
      <feOffset
         dy="4"
         id="feOffset4" />
      <feGaussianBlur
         stdDeviation="2"
         id="feGaussianBlur4" />
      <feComposite
         in2="hardAlpha"
         operator="out"
         id="feComposite4" />
      <feColorMatrix
         type="matrix"
         values="0 0 0 0 0 0 0 0 0 0 0 0 0 0 0 0 0 0 0.25 0"
         id="feColorMatrix5" />
      <feBlend
         mode="normal"
         in2="BackgroundImageFix"
         result="effect1_dropShadow_5071_2477"
         id="feBlend5" />
      <feBlend
         mode="normal"
         in="SourceGraphic"
         in2="effect1_dropShadow_5071_2477"
         result="shape"
         id="feBlend6" />
    </filter>
    <clipPath
       id="clip0_5071_2477">
      <rect
         width="54"
         height="47"
         fill="#ffffff"
         transform="translate(11,6)"
         id="rect6"
         x="0"
         y="0" />
    </clipPath>
  </defs>
</svg>

<svg width="76" height="63" viewBox="0 0 76 63" fill="none" xmlns="http://www.w3.org/2000/svg">
<g filter="url(#filter0_d_5071_2477)">
<rect x="4" width="68" height="55" rx="4" fill="#1D94A4"/>
<g clip-path="url(#clip0_5071_2477)">
<path d="M15.1436 37.7576C16.772 35.8679 19.7609 33.0975 21.7854 33.4917C23.81 33.8856 27.4126 34.9565 29.7913 28.998C31.2699 25.294 35.9152 23.7 37.6302 25.0865C45.5264 31.4705 43.9998 25.0643 45.4415 22.1629C49.2136 14.5667 50.9154 16.1863 56.4933 24.8783C61.2378 32.2715 61.3613 39.7189 60.3615 39.6545C60.3615 39.6545 49.683 39.6545 36.7446 39.6545C14.8706 39.6545 12.5068 40.8252 15.1436 37.7653V37.7576ZM18.2156 16.2795C17.4148 14.2695 17.8682 11.557 19.2233 10.2518C22.7463 6.85888 29.4213 9.95993 28.5011 14.562C27.4761 19.6881 20.0668 20.9255 18.2156 16.2795Z" fill="white"/>
<path d="M63.4906 6.75586H12.1045V42.045H63.4906V6.75586Z" stroke="white" stroke-width="1.28891"/>
<path d="M47.7543 11.0258C43.8271 10.9464 39.8875 12.4887 37.1224 15.5559H37.1201C33.0869 20.0297 32.7391 26.4345 35.858 31.1535L21.7358 46.9064L27.3591 51.6068L41.4878 35.907C46.7263 38.4944 53.5495 37.3517 57.6922 32.7564C62.6079 27.3037 61.9946 18.9362 56.3328 14.202C53.8558 12.1307 50.8088 11.0876 47.7543 11.0258ZM47.4007 15.9646C48.5491 15.9647 49.6864 16.1826 50.7474 16.606C51.8084 17.0294 52.7724 17.6499 53.5844 18.4321C54.3964 19.2143 55.0404 20.1429 55.4798 21.1649C55.9191 22.1868 56.1452 23.2821 56.145 24.3882C56.1448 26.6216 55.2234 28.7636 53.5836 30.3429C51.9438 31.9221 49.7197 32.8095 47.4007 32.8096C46.2522 32.8098 45.1149 32.5922 44.0538 32.169C42.9927 31.7459 42.0285 31.1256 41.2163 30.3436C40.4041 29.5616 39.7598 28.6332 39.3202 27.6113C38.8806 26.5895 38.6543 25.4943 38.6542 24.3882C38.654 23.2819 38.8801 22.1865 39.3196 21.1644C39.759 20.1423 40.4033 19.2136 41.2155 18.4314C42.0277 17.6491 42.992 17.0287 44.0533 16.6054C45.1146 16.1821 46.252 15.9644 47.4007 15.9646Z" fill="white" stroke="#1D94A4" stroke-width="2"/>
</g>
</g>
<defs>
<filter id="filter0_d_5071_2477" x="0" y="0" width="76" height="63" filterUnits="userSpaceOnUse" color-interpolation-filters="sRGB">
<feFlood flood-opacity="0" result="BackgroundImageFix"/>
<feColorMatrix in="SourceAlpha" type="matrix" values="0 0 0 0 0 0 0 0 0 0 0 0 0 0 0 0 0 0 127 0" result="hardAlpha"/>
<feOffset dy="4"/>
<feGaussianBlur stdDeviation="2"/>
<feComposite in2="hardAlpha" operator="out"/>
<feColorMatrix type="matrix" values="0 0 0 0 0 0 0 0 0 0 0 0 0 0 0 0 0 0 0.25 0"/>
<feBlend mode="normal" in2="BackgroundImageFix" result="effect1_dropShadow_5071_2477"/>
<feBlend mode="normal" in="SourceGraphic" in2="effect1_dropShadow_5071_2477" result="shape"/>
</filter>
<clipPath id="clip0_5071_2477">
<rect width="54" height="47" fill="white" transform="translate(11 6)"/>
</clipPath>
</defs>
</svg>
